projects/fh/img/icons/tl.svg

<svg width="21" height="17" viewBox="0 0 21 17" fill="none" xmlns="http://www.w3.org/2000/svg">
<path fill="currentColor" d="M18.6646 0.110375L0.934606 6.94737C-0.275394 7.43337 -0.268393 8.10837 0.712607 8.40937L5.26461 9.82937L15.7966 3.18437C16.2946 2.88137 16.7496 3.04437 16.3756 3.37637L7.84261 11.0774H7.84061L7.84261 11.0784L7.52861 15.7704C7.98861 15.7704 8.19161 15.5594 8.44961 15.3104L10.6606 13.1604L15.2596 16.5574C16.1076 17.0244 16.7166 16.7844 16.9276 15.7724L19.9466 1.54437C20.2556 0.305375 19.4736 -0.255625 18.6646 0.110375V0.110375Z" />
</svg>

<svg width="21" height="17" fill="none" xmlns="http://www.w3.org/2000/svg"><path fill="currentColor" d="M18.665.11L.935 6.947C-.275 7.433-.268 8.108.713 8.41l4.552 1.42 10.532-6.645c.498-.303.953-.14.579.192l-8.533 7.701H7.84l.002.001-.314 4.692c.46 0 .663-.21.92-.46l2.212-2.15 4.599 3.397c.848.467 1.457.227 1.668-.785l3.019-14.228c.309-1.239-.473-1.8-1.282-1.434z"/></svg>
